src/images/crypto-icon-svg/mcap.svg

<svg xmlns="http://www.w3.org/2000/svg" width="32" height="32" viewBox="0 0 32 32">
  <g fill="none" fill-rule="evenodd">
    <circle cx="16" cy="16" r="16" fill="#033B4A"/>
    <path fill="#FFF" fill-rule="nonzero" d="M15.5319689,7.06384526 C16.0886184,6.90116534 16.680278,7.06747809 17.1609676,7.35828174 C19.3089058,8.58059628 21.457834,9.80379688 23.6252122,10.9933273 C24.4578015,11.4340517 25.0116611,12.3392467 24.9996911,13.2725297 C24.9978011,16.3669038 24.9906911,19.462164 24.9951011,22.5565381 C25.0292111,22.7719384 24.8825112,23.0172873 24.6387914,22.9946043 C23.6778622,23.0009839 22.716933,22.9973511 21.7560038,22.996465 C21.5455839,23.0273884 21.3443441,22.8510632 21.3664841,22.6384097 C21.2741442,20.0030127 21.3092441,17.3647803 21.3360641,14.7284973 C21.3351641,14.3977325 21.2723442,14.0496896 21.0591343,13.7833411 C20.8431345,13.4998031 20.5024848,13.3552874 20.1970251,13.1872025 C19.6967155,12.9245755 19.2259259,12.608342 18.7081563,12.3792965 C18.5124964,12.3011463 18.2568067,12.2166165 18.0721268,12.3656512 C17.867197,12.5592545 17.869087,12.8636148 17.847847,13.1235837 C17.812747,14.4158967 17.803567,15.7099818 17.836777,17.0030922 C17.835877,17.3102879 17.845777,17.6664825 17.6124972,17.9036797 C17.3734574,18.1381302 17.0115677,18.141763 16.6977379,18.1472566 C16.1300184,18.140877 15.5623889,18.1617879 14.9955693,18.1336113 C14.7555395,18.1081815 14.4675398,18.0936502 14.3115699,17.8846295 C14.17126,17.6774696 14.17774,17.4157286 14.16568,17.1776453 C14.16289,15.8190553 14.18044,14.4594906 14.16658,13.1009006 C14.15182,12.8616655 14.15551,12.5910639 13.9856802,12.4002074 C13.8232303,12.2330086 13.5626805,12.2883871 13.3672007,12.3592716 C12.941681,12.5246983 12.5613413,12.779085 12.1579617,12.9890803 C11.754582,13.220784 11.3216824,13.4189062 10.9764426,13.7351397 C10.7514428,13.9396414 10.6912329,14.2522421 10.6838529,14.540299 C10.6792629,17.2093661 10.6866429,19.8784332 10.6635129,22.5475003 C10.6865529,22.7501414 10.566583,22.996465 10.3312332,22.9918575 C9.34168399,23.0036421 8.35123481,22.9973511 7.36168562,22.9946043 C7.16323579,23.0136545 6.98044594,22.8400761 7.00168592,22.6429286 C7.04047589,19.3977477 7.01644591,16.1515922 7.01923591,12.9064113 C6.99331593,12.2277809 7.37086562,11.5641248 7.97638512,11.2353979 C10.2309733,9.97197035 12.4899714,8.71607427 14.7360996,7.43740656 C14.9898993,7.29289079 15.2464891,7.14181821 15.5319689,7.06384526 Z"/>
  </g>
</svg>

<svg xmlns="http://www.w3.org/2000/svg" width="32" height="32"><g fill="none" fill-rule="evenodd"><circle cx="16" cy="16" r="16" fill="#033B4A"/><path fill="#FFF" fill-rule="nonzero" d="M15.532 7.064c.557-.163 1.148.003 1.629.294 2.148 1.223 4.297 2.446 6.464 3.635.833.441 1.387 1.346 1.375 2.28-.002 3.094-.01 6.19-.005 9.284.034.215-.112.46-.356.438-.961.006-1.922.002-2.883.001-.21.031-.412-.145-.39-.358-.092-2.635-.057-5.273-.03-7.91 0-.33-.064-.678-.277-.945-.216-.283-.557-.428-.862-.596-.5-.262-.971-.579-1.489-.808-.196-.078-.451-.162-.636-.013-.205.193-.203.498-.224.758a73.454 73.454 0 0 0-.011 3.88c-.001.306.009.662-.225.9-.239.234-.6.238-.914.243-.568-.006-1.136.015-1.702-.013-.24-.026-.528-.04-.684-.25-.14-.207-.134-.468-.146-.706-.003-1.359.014-2.719 0-4.077-.014-.24-.01-.51-.18-.7-.163-.168-.423-.113-.619-.042-.425.166-.806.42-1.209.63-.403.232-.836.43-1.182.746-.225.205-.285.517-.292.805-.005 2.67.003 5.338-.02 8.008.023.202-.097.448-.333.444-.99.012-1.98.005-2.97.003-.198.019-.38-.155-.36-.352.04-3.245.015-6.491.018-9.737a1.848 1.848 0 0 1 .957-1.67c2.255-1.264 4.514-2.52 6.76-3.799.254-.144.51-.295.796-.373z"/></g></svg>
